!!!COM: Sveinbjornsson, Sveinbjorn
!!!CDT: 1847-1926
!!!OTL: National Anthem, Iceland - Lofsongur (Song of Praise)
!!!ENC: Davis, Matthew J.
!!Vocal Line Only
**kern
*clefG2
*k[b-e-a-]
*E-:
*M4/4
=1-
4B-
=2
4e-
4f
4.g
8f
=3
4e-
4f
4d
8r
8b-
=4
8cc
8dd
8ee-
8b-
4a-
8g
8e-
=5
8g
8f
8e-
8f
4g
8r
8b-
=6
4b-
8a-
8g
4g
8f
8e-
=7
8d
8e-
8f
8g
8a-
8r
8ff
8ee-
=8
4dd
8cc
8b-
4f
8b-
8an
=9
4b-
4r
4r
8B-
8B-
=10
4c
8B-
8An
4B-
8e-
8g
=11
4b-
8cc
8dd
4.ee-
8ee-
=12
4dd
8g
8cc
4b-
8b-
8an
=13
4g
4r
4r
8r
8b-
=14
4gg
8gg
8ff
4ee-
8g
8g
=15
4a
8a
8g
4.f
8cc
=16
4b-
8e-
8f
4g
8g
8f
=17
2e-
4r
8b-
8a-
=18
4g
4b-
4f
8dd
8b-
=19
4b-
4ee-
4ff
8r
8b-
20
4gg
8gg
8ff
4ee-
8g
8g
=21
4a-
8a-
8g
4.f
8cc
=22
4b-
8e-
8f
4g
8g
8f
=23
2e-
4r
==|!
*-
